X: 21021
T: KOMMT BRUDER
C: German air.--A. Binzer.
Q: "Slow--in the manner of a march.
%R: air, march
B: W. Hamilton "Universal Tune-Book" Vol. 2 Glasgow 1846 p.102 #1
S: http://s3-eu-west-1.amazonaws.com/itma.dl.printmaterial/book_pdfs/hamiltonvol2web.pdf
Z: 2016 John Chambers <jc:trillian.mit.edu>
M: C
L: 1/4
K: D
% - - - - - - - - - - - - - - - - - - - - - - - - -
A |\
FD FA | d(c/B/) Az | AB/c/ de | fd zA |\
FD FA | d(c/B/) Az/A/ | Bc de | f2 dz/^d/ |\
ef g>c |
=de f>^A | Bc d>F | G=A BD |\
CE B>A | A2c2 | d2 e2 | f3 D |\
EF GA | B2 c2 | d2 |]
% - - - - - - - - - - - - - - - - - - - - - - - - -

%%sep 1 1 500
%%sep 1 1 500

